src/symbolic/apps/system-users-symbolic.svg

<svg xmlns="http://www.w3.org/2000/svg" width="16" height="16" version="1.1">
 <path style="fill:#444444" d="M 11,3.95 C 10.61,3.95 10.25,4.0395 9.9199,4.1895 9.9699,4.4495 10,4.72 10,5 10,6.1 9.5503,7.1001 8.8203,7.8301 9.2803,8.5301 10.08,9 11,9 12.43,9 13.59,7.87 13.59,6.47 13.59,5.08 12.43,3.95 11,3.95 Z M 11,10 C 10.8,10 10.63,10.01 10.45,10.02 11.14,10.42 11.68,10.9 12.05,11.4 12.99,12.66 13,14 13,14 H 16 V 13 C 16,13 16,10 11,10 Z"/>
 <path style="fill:#444444" d="M 6,2 C 7.66,2 9,3.34 9,5 9,6.65 7.66,8 6,8 4.34,8 3,6.65 3,5 3,3.34 4.34,2 6,2 Z M 6,10 C 11.277,10 12,14 12,14 V 15 H 0 V 14 C 0,14 0,10 6,10 Z"/>
</svg>

<svg xmlns="http://www.w3.org/2000/svg" width="16" height="16"><path d="M11 3.95c-.39 0-.75.09-1.08.24a3.992 3.992 0 0 1-1.1 3.64A2.6 2.6 0 0 0 11 9c1.43 0 2.59-1.13 2.59-2.53 0-1.39-1.16-2.52-2.59-2.52zM11 10c-.2 0-.37.01-.55.02.69.4 1.23.88 1.6 1.38.94 1.26.95 2.6.95 2.6h3v-1s0-3-5-3zM6 2c1.66 0 3 1.34 3 3 0 1.65-1.34 3-3 3S3 6.65 3 5c0-1.66 1.34-3 3-3zm0 8c5.277 0 6 4 6 4v1H0v-1s0-4 6-4z" fill="#444"/></svg>
